X: 426
T: A Trip To The Cottage
R: jig
M: 6/8
K: Gmajor
d2 B BAB|c2 A AFD|G2 G FGA|BAB ABc|
d2 B BAB|cBc AFD|EFG FGA|BGG G3:|
|:gfe dcB|edc BAG|ecA dBG|FAG FED|
gfe dcB|edc BAG|efg eag|1 fdd d3:|2 fef g3||

